X: 18252
T: Humours Of Lissadell, The
R: reel
M: 4/4
K: Edorian
gf|:eB~B2 eBdB|AF~F2 EDB,A,|B,E~E2 B,EGE|FB~B2 FBdf|
eB~B2 eBdB|AF~F2 EDB,A,|B,E{G}ED EFGA|(3Bcd ed e2gf:|
|:eB B2 A2FA|defd edef|df f2 dfbf|afdf e2gf|
defd BcdB|AF F2 ABde|fddc dfbf|afdf e2gf:|

